Breeze Chameleon Amethyst Dark Icons/places/64/folder-unlocked.svg

<?xml version="1.0" encoding="UTF-8" standalone="no"?>
<svg
   xmlns:dc="http://purl.org/dc/elements/1.1/"
   xmlns:cc="http://creativecommons.org/ns#"
   xmlns:rdf="http://www.w3.org/1999/02/22-rdf-syntax-ns#"
   xmlns:svg="http://www.w3.org/2000/svg"
   xmlns="http://www.w3.org/2000/svg"
   xmlns:xlink="http://www.w3.org/1999/xlink"
   xmlns:sodipodi="http://sodipodi.sourceforge.net/DTD/sodipodi-0.dtd"
   xmlns:inkscape="http://www.inkscape.org/namespaces/inkscape"
   id="svg2"
   height="64"
   version="1.1"
   width="64"
   sodipodi:docname="folder-unlocked.svg"
   inkscape:version="1.0.2 (e86c870879, 2021-01-15)">
  <sodipodi:namedview
     pagecolor="#ffffff"
     bordercolor="#666666"
     borderopacity="1"
     objecttolerance="10"
     gridtolerance="10"
     guidetolerance="10"
     inkscape:pageopacity="0"
     inkscape:pageshadow="2"
     inkscape:window-width="1920"
     inkscape:window-height="1007"
     id="namedview18"
     showgrid="false"
     inkscape:zoom="3.6875"
     inkscape:cx="32"
     inkscape:cy="32"
     inkscape:window-x="0"
     inkscape:window-y="0"
     inkscape:window-maximized="1"
     inkscape:current-layer="svg2"
     inkscape:document-rotation="0" />
  <defs
     id="defs5455">
    <linearGradient
       inkscape:collect="always"
       id="linearGradient840">
      <stop
         style="stop-color:#9966cc;stop-opacity:1"
         offset="0"
         id="stop836" />
      <stop
         style="stop-color:#9966cc;stop-opacity:1"
         offset="1"
         id="stop838" />
    </linearGradient>
    <linearGradient
       inkscape:collect="always"
       id="linearGradient832">
      <stop
         style="stop-color:#9966cc;stop-opacity:1"
         offset="0"
         id="stop828" />
      <stop
         style="stop-color:#2f2043;stop-opacity:1"
         offset="1"
         id="stop830" />
    </linearGradient>
    <linearGradient
       gradientTransform="matrix(1 0 0 0.99967455 0 0.17645)"
       x2="0"
       gradientUnits="userSpaceOnUse"
       y2="499.78421"
       y1="541.79797"
       xlink:href="#linearGradient4172-5"
       id="linearGradient4178" />
    <linearGradient
       id="linearGradient4172-5">
      <stop
         id="stop4174-6"
         style="stop-color:#3daee9" />
      <stop
         id="stop4176-6"
         style="stop-color:#6cc1ef"
         offset="1" />
    </linearGradient>
    <linearGradient
       inkscape:collect="always"
       xlink:href="#linearGradient832"
       id="linearGradient834"
       x1="387.57143"
       y1="520.79811"
       x2="445.57143"
       y2="520.79811"
       gradientUnits="userSpaceOnUse" />
    <linearGradient
       inkscape:collect="always"
       xlink:href="#linearGradient840"
       id="linearGradient842"
       x1="322.67312"
       y1="470.98444"
       x2="378.67312"
       y2="470.98444"
       gradientUnits="userSpaceOnUse"
       gradientTransform="translate(65.89831,32.81367)" />
  </defs>
  <metadata
     id="metadata5458">
    <rdf:RDF>
      <cc:Work
         rdf:about="">
        <dc:format>image/svg+xml</dc:format>
        <dc:type
           rdf:resource="http://purl.org/dc/dcmitype/StillImage" />
        <dc:title />
      </cc:Work>
    </rdf:RDF>
  </metadata>
  <g
     transform="translate(-384.57143,-483.798)"
     id="layer1">
    <g
       id="layer1-1">
      <path
         d="m 388.57143,489.79823 v 5 22 c 0,0.55373 0.446,1 1,1 h 54 c 0.55399,0 1,-0.44627 1,-1 V 494.808 c 0,-0.003 -0.002,-0.006 -0.002,-0.01 h 0.002 v -1 h -28 l -4,-4 h -24 z"
         id="rect4180"
         style="fill:url(#linearGradient842);fill-opacity:1"
         inkscape:connector-curvature="0" />
      <path
         d="m 410.57143,499.79812 -4,4 h -19 v 1 h 0.002 c -5e-5,0.004 -0.002,0.008 -0.002,0.0117 v 35.98828 1 h 1 56 1 v -1 -35.98828 -0.0117 -5 z"
         id="rect4113"
         style="fill:url(#linearGradient834);fill-opacity:1" />
      <path
         d="m 387.57144,503.79812 v 1 h 19.99999 l 3,-5 -4,4 z"
         id="path4224"
         style="fill:#ffffff;fill-opacity:0.235294;fill-rule:evenodd" />
      <path
         d="m 388.57143,502.79812 v 1 h 18 l 4,-4 -6,3 z"
         id="path4228"
         style="fill-opacity:0.235294;fill-rule:evenodd" />
      <path
         d="m 387.57143,540.7981 v 1 h 1 56 1 v -1 h -1 -56 z"
         id="path4151-2"
         style="fill-opacity:0.235294" />
      <path
         transform="translate(384.57143,483.798)"
         d="m 28,6 3,5 h 2 27 V 10 H 33 32 Z"
         id="path4196"
         style="fill:#ffffff;fill-opacity:0.235294;fill-rule:evenodd" />
    </g>
    <path
       id="rect4136"
       transform="translate(384.57143,483.798)"
       d="m 32,27 c -2.77,0 -5,2.23 -5,5 v 1 h 1 v -1 c 0,-2.42375 1.92251,-4 4,-4 2.0775,0 4,1.57625 4,4 v 5 h -8 -1 -3 v 1 9 H 25.75 38.25 40 V 37 H 38.25 37 v -5 c 0,-2.77 -2.23,-5 -5,-5 z m -7,11 h 14 v 8 H 25 Z"
       style="fill:#ffffff;fill-opacity:1" />
  </g>
</svg>

<?xml version="1.0" encoding="UTF-8" standalone="no"?>
<svg
   xmlns:dc="http://purl.org/dc/elements/1.1/"
   xmlns:cc="http://creativecommons.org/ns#"
   xmlns:rdf="http://www.w3.org/1999/02/22-rdf-syntax-ns#"
   xmlns:svg="http://www.w3.org/2000/svg"
   xmlns="http://www.w3.org/2000/svg"
   xmlns:xlink="http://www.w3.org/1999/xlink"
   xmlns:sodipodi="http://sodipodi.sourceforge.net/DTD/sodipodi-0.dtd"
   xmlns:inkscape="http://www.inkscape.org/namespaces/inkscape"
   id="svg2"
   height="64"
   version="1.1"
   width="64"
   sodipodi:docname="folder-unlocked.svg"
   inkscape:version="0.92.4 (5da689c313, 2019-01-14)">
  <sodipodi:namedview
     pagecolor="#ffffff"
     bordercolor="#666666"
     borderopacity="1"
     objecttolerance="10"
     gridtolerance="10"
     guidetolerance="10"
     inkscape:pageopacity="0"
     inkscape:pageshadow="2"
     inkscape:window-width="1920"
     inkscape:window-height="1033"
     id="namedview18"
     showgrid="false"
     inkscape:zoom="3.6875"
     inkscape:cx="32"
     inkscape:cy="32"
     inkscape:window-x="0"
     inkscape:window-y="0"
     inkscape:window-maximized="1"
     inkscape:current-layer="svg2" />
  <defs
     id="defs5455">
    <linearGradient
       inkscape:collect="always"
       id="linearGradient840">
      <stop
         style="stop-color:#9966cc;stop-opacity:1"
         offset="0"
         id="stop836" />
      <stop
         style="stop-color:#9966cc;stop-opacity:1"
         offset="1"
         id="stop838" />
    </linearGradient>
    <linearGradient
       inkscape:collect="always"
       id="linearGradient832">
      <stop
         style="stop-color:#9966cc;stop-opacity:1"
         offset="0"
         id="stop828" />
      <stop
         style="stop-color:#2f2043;stop-opacity:1"
         offset="1"
         id="stop830" />
    </linearGradient>
    <linearGradient
       gradientTransform="matrix(1 0 0 0.99967455 0 0.17645)"
       x2="0"
       gradientUnits="userSpaceOnUse"
       y2="499.78421"
       y1="541.79797"
       xlink:href="#linearGradient4172-5"
       id="linearGradient4178" />
    <linearGradient
       id="linearGradient4172-5">
      <stop
         id="stop4174-6"
         style="stop-color:#3daee9" />
      <stop
         id="stop4176-6"
         style="stop-color:#6cc1ef"
         offset="1" />
    </linearGradient>
    <linearGradient
       inkscape:collect="always"
       xlink:href="#linearGradient832"
       id="linearGradient834"
       x1="387.57143"
       y1="520.79811"
       x2="445.57143"
       y2="520.79811"
       gradientUnits="userSpaceOnUse" />
    <linearGradient
       inkscape:collect="always"
       xlink:href="#linearGradient840"
       id="linearGradient842"
       x1="322.67312"
       y1="470.98444"
       x2="378.67312"
       y2="470.98444"
       gradientUnits="userSpaceOnUse"
       gradientTransform="translate(65.89831,32.81367)" />
  </defs>
  <metadata
     id="metadata5458">
    <rdf:RDF>
      <cc:Work
         rdf:about="">
        <dc:format>image/svg+xml</dc:format>
        <dc:type
           rdf:resource="http://purl.org/dc/dcmitype/StillImage" />
        <dc:title />
      </cc:Work>
    </rdf:RDF>
  </metadata>
  <g
     transform="matrix(1 0 0 1 -384.57143 -483.798)"
     id="layer1">
    <g
       transform="matrix(1 0 0 1 0 0.000005)"
       id="layer1-1">
      <path
         d="m 388.57143,489.79823 v 5 22 c 0,0.55373 0.446,1 1,1 h 54 c 0.55399,0 1,-0.44627 1,-1 V 494.808 c 0,-0.003 -0.002,-0.006 -0.002,-0.01 h 0.002 v -1 h -28 l -4,-4 h -24 z"
         id="rect4180"
         style="fill:url(#linearGradient842);fill-opacity:1"
         inkscape:connector-curvature="0" />
      <path
         d="m 410.57143,499.79812 -4,4 -19,0 0,1 0.002,0 c -5e-5,0.004 -0.002,0.008 -0.002,0.0117 l 0,35.98828 0,1 1,0 56,0 1,0 0,-1 0,-35.98828 0,-0.0117 0,-5 z"
         id="rect4113"
         style="fill:url(#linearGradient834);fill-opacity:1" />
      <path
         d="m 387.57144,503.79812 0,1 19.99999,0 3,-5 -4,4 z"
         id="path4224"
         style="fill:#ffffff;fill-opacity:0.235294;fill-rule:evenodd" />
      <path
         d="m 388.57143,502.79812 0,1 18,0 4,-4 -6,3 z"
         id="path4228"
         style="fill-opacity:0.235294;fill-rule:evenodd" />
      <path
         d="m 387.57143,540.7981 0,1 1,0 56,0 1,0 0,-1 -1,0 -56,0 -1,0 z"
         id="path4151-2"
         style="fill-opacity:0.235294" />
      <path
         transform="matrix(1 0 0 1 384.57143 483.798)"
         d="m 28,6 3,5 2,0 27,0 0,-1 -27,0 -1,0 z"
         id="path4196"
         style="fill:#ffffff;fill-opacity:0.235294;fill-rule:evenodd" />
    </g>
    <path
       id="rect4136"
       transform="translate(384.57143,483.798)"
       d="M 32 27 C 29.23 27 27 29.23 27 32 L 27 33 L 28 33 L 28 32 C 28 29.57625 29.92251 28 32 28 C 34.0775 28 36 29.57625 36 32 L 36 37 L 28 37 L 27 37 L 24 37 L 24 38 L 24 47 L 25.75 47 L 38.25 47 L 40 47 L 40 37 L 38.25 37 L 37 37 L 37 32 C 37 29.23 34.77 27 32 27 z M 25 38 L 39 38 L 39 46 L 25 46 L 25 38 z "
       style="fill:#2f2043;fill-opacity:1" />
  </g>
</svg>
